dist/svgs/carbon-icons/svg/devices.svg

<svg xmlns="http://www.w3.org/2000/svg" fill-rule="evenodd" viewBox="0 0 24 23"><path d="M20.5 17c1.4 0 2.5 1.1 2.5 2.5S21.9 22 20.5 22h-17C2.1 22 1 20.9 1 19.5S2.1 17 3.5 17h17zm0-1h-17C1.6 16 0 17.6 0 19.5S1.6 23 3.5 23h17c1.9 0 3.5-1.6 3.5-3.5S22.4 16 20.5 16z"/><path d="M19.5 20h-15c-.3 0-.5-.2-.5-.5s.2-.5.5-.5h15c.3 0 .5.2.5.5s-.2.5-.5.5zm1-11c1.4 0 2.5 1.1 2.5 2.5S21.9 14 20.5 14h-17C2.1 14 1 12.9 1 11.5S2.1 9 3.5 9h17zm0-1h-17C1.6 8 0 9.6 0 11.5S1.6 15 3.5 15h17c1.9 0 3.5-1.6 3.5-3.5S22.4 8 20.5 8z"/><path d="M19.5 12h-15c-.3 0-.5-.2-.5-.5s.2-.5.5-.5h15c.3 0 .5.2.5.5s-.2.5-.5.5zm1-11C21.9 1 23 2.1 23 3.5S21.9 6 20.5 6h-17C2.1 6 1 4.9 1 3.5S2.1 1 3.5 1h17zm0-1h-17C1.6 0 0 1.6 0 3.5S1.6 7 3.5 7h17C22.4 7 24 5.4 24 3.5S22.4 0 20.5 0z"/><path d="M19.5 4h-15c-.3 0-.5-.2-.5-.5s.2-.5.5-.5h15c.3 0 .5.2.5.5s-.2.5-.5.5z"/></svg>

<svg width="24px" height="23px" viewBox="0 0 24 23" version="1.1" xmlns="http://www.w3.org/2000/svg" xmlns:xlink="http://www.w3.org/1999/xlink" fill-rule="evenodd">
	<path d="M20.5,17 C21.9,17 23,18.1 23,19.5 C23,20.9 21.9,22 20.5,22 L3.5,22 C2.1,22 1,20.9 1,19.5 C1,18.1 2.1,17 3.5,17 L20.5,17 L20.5,17 Z M20.5,16 L3.5,16 C1.6,16 0,17.6 0,19.5 L0,19.5 C0,21.4 1.6,23 3.5,23 L20.5,23 C22.4,23 24,21.4 24,19.5 L24,19.5 C24,17.6 22.4,16 20.5,16 L20.5,16 L20.5,16 Z" id="Shape" fill="#010101"></path>
	<path d="M19.5,20 L4.5,20 C4.2,20 4,19.8 4,19.5 C4,19.2 4.2,19 4.5,19 L19.5,19 C19.8,19 20,19.2 20,19.5 C20,19.8 19.8,20 19.5,20 L19.5,20 Z" id="Shape" fill="#010101"></path>
	<path d="M20.5,9 C21.9,9 23,10.1 23,11.5 C23,12.9 21.9,14 20.5,14 L3.5,14 C2.1,14 1,12.9 1,11.5 C1,10.1 2.1,9 3.5,9 L20.5,9 L20.5,9 Z M20.5,8 L3.5,8 C1.6,8 0,9.6 0,11.5 L0,11.5 C0,13.4 1.6,15 3.5,15 L20.5,15 C22.4,15 24,13.4 24,11.5 L24,11.5 C24,9.6 22.4,8 20.5,8 L20.5,8 L20.5,8 Z" id="Shape" fill="#010101"></path>
	<path d="M19.5,12 L4.5,12 C4.2,12 4,11.8 4,11.5 C4,11.2 4.2,11 4.5,11 L19.5,11 C19.8,11 20,11.2 20,11.5 C20,11.8 19.8,12 19.5,12 L19.5,12 Z" id="Shape" fill="#010101"></path>
	<path d="M20.5,1 C21.9,1 23,2.1 23,3.5 C23,4.9 21.9,6 20.5,6 L3.5,6 C2.1,6 1,4.9 1,3.5 C1,2.1 2.1,1 3.5,1 L20.5,1 L20.5,1 Z M20.5,0 L3.5,0 C1.6,0 0,1.6 0,3.5 L0,3.5 C0,5.4 1.6,7 3.5,7 L20.5,7 C22.4,7 24,5.4 24,3.5 L24,3.5 C24,1.6 22.4,0 20.5,0 L20.5,0 L20.5,0 Z" id="Shape" fill="#010101"></path>
	<path d="M19.5,4 L4.5,4 C4.2,4 4,3.8 4,3.5 C4,3.2 4.2,3 4.5,3 L19.5,3 C19.8,3 20,3.2 20,3.5 C20,3.8 19.8,4 19.5,4 L19.5,4 Z" id="Shape" fill="#010101"></path>
</svg>
